svgs/thin/flask-round-poison.svg

<svg xmlns="http://www.w3.org/2000/svg" viewBox="0 0 448 512"><!-- Font Awesome Pro 6.0.0-alpha2 by @fontawesome - https://fontawesome.com License - https://fontawesome.com/license (Commercial License) --><path d="M183.969 280C166.344 280 152 294.344 152 312S166.344 344 183.969 344C201.625 344 215.969 329.656 215.969 312S201.625 280 183.969 280ZM183.969 328C175.156 328 168 320.812 168 312S175.156 296 183.969 296S199.969 303.188 199.969 312S192.781 328 183.969 328ZM263.969 280C246.312 280 231.969 294.344 231.969 312S246.312 344 263.969 344S295.969 329.656 295.969 312S281.625 280 263.969 280ZM263.969 328C255.156 328 247.969 320.812 247.969 312S255.156 296 263.969 296S279.969 303.188 279.969 312S272.781 328 263.969 328ZM223.969 216C157.812 216 104 259.062 104 312C104 342.188 121.844 370.562 152 388.75V400C152 413.219 162.781 424 176 424H271.969C285.187 424 295.969 413.219 295.969 400V388.75C326.125 370.562 343.969 342.188 343.969 312C343.969 259.062 290.125 216 223.969 216ZM284.094 377.125L279.969 379.406V400C279.969 404.5 276.469 408 271.969 408H176C171.5 408 168 404.5 168 400V379.406L163.875 377.125C136.406 361.969 120 337.625 120 312C120 267.875 166.625 232 223.969 232S327.969 267.875 327.969 312C327.969 337.625 311.562 361.969 284.094 377.125ZM288 154.137V16H312C316.406 16 320 12.406 320 8S316.406 0 312 0H136C131.594 0 128 3.594 128 8S131.594 16 136 16H160V154.137C76.461 181.145 16 259.469 16 352C16 411.91 41.348 465.879 81.883 503.832C87.684 509.262 95.539 512 103.484 512H344.516C352.461 512 360.316 509.262 366.117 503.832C406.652 465.879 432 411.91 432 352C432 259.469 371.539 181.145 288 154.137ZM355.184 492.152C352.57 494.598 348.68 496 344.516 496H103.484C99.32 496 95.43 494.598 92.82 492.152C53.598 455.434 32 405.656 32 352C32 268.461 85.418 195.062 164.922 169.359L176 165.777V16H272V165.777L283.078 169.359C362.582 195.062 416 268.461 416 352C416 405.656 394.402 455.434 355.184 492.152Z"/></svg>

<svg xmlns="http://www.w3.org/2000/svg" viewBox="0 0 448 512"><!--! Font Awesome Pro 6.3.0 by @fontawesome - https://fontawesome.com License - https://fontawesome.com/license (Commercial License) Copyright 2023 Fonticons, Inc. --><path d="M183.1 280C166.3 280 152 294.3 152 312s14.34 32 31.97 32c17.66 0 32-14.34 32-32S201.6 280 183.1 280zM183.1 328C175.2 328 168 320.8 168 312s7.156-16 15.97-16s16 7.188 16 16S192.8 328 183.1 328zM263.1 280c-17.66 0-32 14.34-32 32s14.34 32 32 32s32-14.34 32-32S281.6 280 263.1 280zM263.1 328c-8.812 0-16-7.188-16-16s7.188-16 16-16s16 7.188 16 16S272.8 328 263.1 328zM223.1 216C157.8 216 104 259.1 104 312c0 30.19 17.84 58.56 48 76.75V400c0 13.22 10.78 24 24 24h95.97c13.22 0 24-10.78 24-24v-11.25c30.16-18.19 48-46.56 48-76.75C343.1 259.1 290.1 216 223.1 216zM284.1 377.1l-4.125 2.281V400c0 4.5-3.5 8-8 8H176c-4.5 0-8-3.5-8-8v-20.59l-4.125-2.281C136.4 361.1 120 337.6 120 312c0-44.13 46.63-80 103.1-80s104 35.88 104 80C327.1 337.6 311.6 361.1 284.1 377.1zM288 154.1V16h24C316.4 16 320 12.41 320 8S316.4 0 312 0h-176C131.6 0 128 3.594 128 8S131.6 16 136 16H160v138.1C76.46 181.1 16 259.5 16 352c0 59.91 25.35 113.9 65.88 151.8C87.68 509.3 95.54 512 103.5 512h241c7.945 0 15.8-2.738 21.6-8.168C406.7 465.9 432 411.9 432 352C432 259.5 371.5 181.1 288 154.1zM355.2 492.2C352.6 494.6 348.7 496 344.5 496H103.5c-4.164 0-8.055-1.402-10.66-3.848C53.6 455.4 32 405.7 32 352c0-83.54 53.42-156.9 132.9-182.6L176 165.8V16h96v149.8l11.08 3.582C362.6 195.1 416 268.5 416 352C416 405.7 394.4 455.4 355.2 492.2z"/></svg>
